X: 5
T: Galway, The
M: 4/4
L: 1/8
R: hornpipe
K: Dmaj
|: FE |\
D2 FA dAFD | EDEF GEFE | D2 FA d2 df | edcB AGFE |
D2 FA dAFD | EDEF G2 FG | AdcB AGFE | D2 F2 D2 :|
|: de |\
f^efg fedc | B^ABc B2 cd | e^def edcB | A^GAB A2 Bc |
d2 de fdAF | G2 GA BdcB | AdcB AGFE | F2 D2 D2 :|
